build/img/cloud-logo-wrong-6.svg

<svg width="132" height="96" viewBox="0 0 132 96" fill="none" xmlns="http://www.w3.org/2000/svg">
<g clip-path="url(#clip0)" filter="url(#filter0_d)">
<path d="M104.06 33.1835C103.66 33.1835 103.253 33.1835 102.849 33.2201C101.994 23.3191 93.3981 15.5872 83.2008 15.5872C80.4913 15.5907 77.811 16.1364 75.3239 17.1908C73.5121 12.7051 70.3662 8.85765 66.2953 6.14852C62.2244 3.4394 57.4167 1.99392 52.4971 1.99996C38.9719 1.99996 27.9673 12.746 27.9673 25.954C27.9673 26.32 27.9673 26.6926 27.9978 27.0686C22.4696 27.8199 17.4034 30.5022 13.7297 34.6227C10.0561 38.7433 8.02164 44.0254 8.00014 49.4989C7.98388 54.0213 9.35758 58.4436 11.9421 62.189C14.5265 65.9343 18.2019 68.829 22.4887 70.4954C24.7819 71.4136 28.8527 71.9359 29.1987 71.1607C29.3378 70.8513 28.9917 70.5286 28.0826 70.1194C25.7193 69.0724 23.4498 67.8327 21.298 66.4132C16.9694 63.4189 14.6864 60.3348 13.5364 58.2821C12.1118 55.5661 11.3764 52.5532 11.3925 49.4989C11.4068 44.5752 13.3307 39.8412 16.7736 36.2576C20.2165 32.674 24.9207 30.5092 29.9314 30.2026C30.1613 30.1883 30.3857 30.1282 30.5911 30.0261C30.7966 29.924 30.9786 29.7819 31.1262 29.6085C31.2738 29.4351 31.3838 29.234 31.4496 29.0176C31.5154 28.8011 31.5356 28.5738 31.5088 28.3495C31.4124 27.5544 31.3626 26.7547 31.3596 25.954C31.3596 14.5825 40.858 5.32691 52.4971 5.32691C57.0233 5.34096 61.4267 6.77161 65.0663 9.41055C68.7059 12.0495 71.3915 15.7589 72.7322 19.9988C72.8061 20.2371 72.9336 20.456 73.1053 20.6395C73.277 20.823 73.4885 20.9663 73.7242 21.0589C73.96 21.1515 74.2139 21.191 74.4673 21.1745C74.7206 21.158 74.967 21.086 75.1882 20.9636C77.6677 19.5992 80.4672 18.8929 83.3102 18.9144C86.1532 18.9359 88.9412 19.6845 91.3989 21.0862C93.8566 22.4879 95.8989 24.4943 97.324 26.907C98.749 29.3198 99.5076 32.0554 99.5246 34.8437V35.04C99.5217 35.2817 99.5725 35.5213 99.6736 35.7418C99.7747 35.9623 99.9236 36.1586 100.11 36.317C100.296 36.4753 100.515 36.5919 100.752 36.6587C100.989 36.7254 101.238 36.7407 101.482 36.7034C102.336 36.5734 103.199 36.5077 104.064 36.5072C108.442 36.4974 112.646 38.1928 115.751 41.2207C118.857 44.2487 120.61 48.3617 120.625 52.6562C120.625 57.9294 117.646 63.3524 113.335 66.0339C111.299 67.3347 111.262 67.5809 106.065 70.1094C105.482 70.3922 104.837 70.7748 105.024 71.1707C105.149 71.4435 105.733 71.5633 106.543 71.5633C108.438 71.5104 110.31 71.1483 112.083 70.492C116.275 68.7068 119.711 65.5568 121.808 61.5744C123.906 57.5921 124.538 53.0215 123.597 48.6352C122.656 44.2488 120.199 40.3156 116.643 37.5003C113.086 34.685 108.648 33.1602 104.077 33.1835H104.06Z" fill="#231F20"/>
<path d="M32.0202 77.5219V80.087H30.6836V74.2149H32.0202V76.4972H32.7631L34.4592 74.2149H35.9858L33.7231 77.0628L36.1554 80.087H34.6288L32.6443 77.5219H32.0202Z" fill="#231F20"/>
<path d="M39.2365 80.2301C37.7778 80.2301 36.2852 79.2786 36.2852 77.1626C36.2852 75.0467 37.7778 74.0818 39.2365 74.0818C40.6952 74.0818 42.1878 75.0433 42.1878 77.1626C42.1878 79.2819 40.6952 80.2301 39.2365 80.2301ZM40.8173 77.1626C40.8173 75.8085 40.071 75.1431 39.2365 75.1431C38.402 75.1431 37.6556 75.8085 37.6556 77.1626C37.6556 78.5167 38.402 79.1588 39.2365 79.1588C40.071 79.1588 40.8173 78.52 40.8173 77.1626Z" fill="#231F20"/>
<path d="M47.3511 77.5884H44.678V80.087H43.3516V74.2149H44.678V76.5604H47.3511V74.2149H48.6741V80.087H47.3511V77.5884Z" fill="#231F20"/>
<path d="M55.1551 81.4743V80.0869H50.779V81.4743H49.5781V79.0722H49.9174C50.5958 79.0722 50.935 78.2205 51.03 76.078L51.1182 74.2115H55.4841V79.0689H56.3763V81.471L55.1551 81.4743ZM52.2716 75.2396L52.2173 76.2377C52.1257 77.788 51.9052 78.6264 51.4371 79.0756H54.151V75.2396H52.2716Z" fill="#231F20"/>
<path d="M61.5294 80.087V76.0148L58.6799 80.087H57.3535V74.2149H58.6799V78.3071L61.5294 74.2149H62.8558V80.087H61.5294Z" fill="#231F20"/>
<path d="M70.3404 81.4743H69.1362V80.087H64.3496V74.2149H65.6692V79.0623H68.1185V74.2149H69.4449V79.0623H70.337L70.3404 81.4743Z" fill="#231F20"/>
<path d="M75.506 80.087V76.0148L72.6565 80.087H71.3301V74.2149H72.6565V78.3071L75.506 74.2149H76.8324V80.087H75.506Z" fill="#231F20"/>
<path d="M80.8283 80.2301C79.3696 80.2301 77.877 79.2786 77.877 77.1626C77.877 75.0467 79.3696 74.0818 80.8283 74.0818C82.287 74.0818 83.7796 75.0433 83.7796 77.1626C83.7796 79.2819 82.2903 80.2301 80.8283 80.2301ZM82.4091 77.1626C82.4091 75.8085 81.6628 75.1431 80.8283 75.1431C79.9938 75.1431 79.2474 75.8085 79.2474 77.1626C79.2474 78.5167 79.9938 79.1588 80.8283 79.1588C81.6628 79.1588 82.4091 78.52 82.4091 77.1626Z" fill="#231F20"/>
<path d="M88.9239 77.5884H86.2541V80.087H84.9277V74.2149H86.2541V76.5604H88.9239V74.2149H90.2503V80.087H88.9239V77.5884Z" fill="#231F20"/>
<path d="M94.372 79.1488C95.0505 79.1488 95.6068 78.876 95.8409 78.3304H97.1436C96.9712 78.898 96.6107 79.3931 96.1192 79.7371C95.6276 80.0812 95.0331 80.2547 94.4297 80.2301C92.5029 80.2301 91.4004 78.7895 91.4004 77.106C91.4004 75.3394 92.6386 74.0818 94.3415 74.0818C96.1768 74.0818 97.3233 75.5457 97.2148 77.5219H92.7471C92.8353 78.6132 93.6156 79.1488 94.372 79.1488ZM95.8647 76.5737C95.8642 76.3782 95.8243 76.1847 95.7472 76.0043C95.67 75.824 95.5573 75.6604 95.4153 75.5231C95.2734 75.3858 95.1051 75.2774 94.9202 75.2041C94.7353 75.1309 94.5375 75.0944 94.3381 75.0966C93.928 75.0876 93.5308 75.2377 93.2329 75.5143C92.935 75.7909 92.7604 76.1716 92.7471 76.5737H95.8647Z" fill="#231F20"/>
<path d="M99.6355 75.0001C99.8222 74.7047 100.086 74.4638 100.4 74.3023C100.714 74.1408 101.066 74.0647 101.42 74.0818C102.879 74.0818 103.991 75.2729 103.991 77.1493C103.991 79.0257 102.879 80.23 101.42 80.23C101.066 80.2472 100.714 80.171 100.4 80.0096C100.086 79.8481 99.8222 79.6072 99.6355 79.3118V82H98.3125V74.2149H99.6355V75.0001ZM102.611 77.1493C102.611 75.9183 102.054 75.1531 101.128 75.1531C100.26 75.1531 99.5812 75.8185 99.5812 77.1493C99.5812 78.4801 100.26 79.1721 101.128 79.1721C102.054 79.1854 102.611 78.3969 102.611 77.1493Z" fill="#231F20"/>
<path d="M32.445 58.6049C34.7348 58.6049 36.6853 60.0854 36.6853 63.033C36.6853 65.9807 34.7348 67.4479 32.445 67.4479C30.1551 67.4479 28.2012 65.9807 28.2012 63.033C28.2012 60.0854 30.1518 58.6049 32.445 58.6049ZM32.445 65.1257C33.1743 65.1257 33.734 64.5934 33.734 63.033C33.734 61.4727 33.1743 60.9271 32.445 60.9271C31.7156 60.9271 31.1559 61.4727 31.1559 63.033C31.1559 64.5934 31.7122 65.1257 32.445 65.1257Z" fill="#231F20"/>
<path d="M37.3887 62.1447V61.8852C37.4735 58.8144 38.4064 56.256 42.1379 55.8966L44.6448 55.6638V58.2255L41.5646 58.5582C40.4316 58.6979 39.5292 59.1205 39.4275 60.6974C39.9159 59.7426 40.9913 59.4332 41.9513 59.4332C43.8273 59.4332 45.5166 60.764 45.5166 63.3158C45.5166 66.0638 43.3965 67.4345 41.378 67.4345C39.2103 67.4478 37.3887 65.8775 37.3887 62.1447ZM42.6027 63.3291C42.6027 61.9417 41.9988 61.5358 41.3543 61.5358C40.7097 61.5358 40.2111 61.9584 40.2111 63.3291C40.2111 64.5634 40.781 65.1256 41.3848 65.1256C41.9886 65.1256 42.6027 64.6399 42.6027 63.3291Z" fill="#231F20"/>
<path d="M45.9941 64.9693H46.252C46.7812 64.9693 47.2968 64.437 47.4257 61.6623L47.5716 58.8544H54.4749V67.245H51.6118V61.13H50.2074L50.0785 63.0962C49.919 65.4684 49.0167 67.245 46.5369 67.245H45.9941V64.9693Z" fill="#231F20"/>
<path d="M59.7353 60.5843C59.5771 60.5683 59.4172 60.5838 59.2652 60.6297C59.1131 60.6757 58.9721 60.7513 58.8505 60.8519C58.7289 60.9525 58.6293 61.0761 58.5575 61.2153C58.4857 61.3546 58.4433 61.5066 58.4327 61.6622H55.9665C56.0954 60.0686 57.3879 58.5549 59.9355 58.5549C62.1439 58.5549 63.7179 59.4598 63.6908 62.2678V63.8747C63.6722 64.9998 63.7198 66.1251 63.8333 67.2449H61.1669V66.1536C60.5936 67.0752 59.637 67.4478 58.548 67.4478C57.0419 67.4478 55.7969 66.4331 55.7969 64.936C55.7969 62.9864 57.6423 62.1613 60.8853 61.9417V61.7088C60.8819 60.7706 60.3527 60.5843 59.7353 60.5843ZM58.66 64.5767C58.66 64.936 58.9348 65.3419 59.6064 65.3419C60.3527 65.3419 60.9837 65.0092 60.9837 63.7183V63.4688C59.464 63.5786 58.66 63.8614 58.66 64.5933V64.5767Z" fill="#231F20"/>
<path d="M69.7395 64.4836C69.1104 64.6303 68.466 64.704 67.8194 64.7032C66.0995 64.7032 65.0547 63.8282 65.0547 61.9584V58.8544H67.9212V61.4727C67.9212 62.4242 68.2197 62.5806 69.0373 62.5806C69.2747 62.5827 69.5112 62.5514 69.7395 62.4874V58.8544H72.606V67.245H69.7395V64.4836Z" fill="#231F20"/>
<path d="M74.3066 58.8544H77.1731V61.8187H79.4222V58.8544H82.2921V67.245H79.4256V64.0943H77.1765V67.245H74.31L74.3066 58.8544Z" fill="#231F20"/>
<path d="M84.0098 58.8544H86.8729V61.303H87.8906C90.2957 61.303 91.3134 62.2079 91.3134 64.2341C91.3134 66.4964 90.4111 67.245 88.0636 67.245H84.0098V58.8544ZM87.8058 65.139C88.3926 65.139 88.7658 64.9527 88.7658 64.2341C88.7658 63.5953 88.3926 63.409 87.8193 63.409H86.8729V65.139H87.8058ZM92.2768 58.8544H95.1399V67.245H92.2768V58.8544Z" fill="#231F20"/>
<path d="M96.8574 58.8543H99.5068V63.5121L102.16 58.8543H104.809V67.2449H102.16V62.6737L99.5068 67.2449H96.8574V58.8543ZM98.0617 55.9366H99.7578C99.8291 56.3092 100.189 56.4988 100.833 56.4988C101.478 56.4988 101.851 56.3092 101.909 55.9366H103.605C103.489 57.091 102.587 57.8862 100.826 57.8862C99.0658 57.8862 98.1465 57.091 98.0617 55.9366Z" fill="#231F20"/>
</g>
<defs>
<filter id="filter0_d" x="0" y="0" width="132" height="96" filterUnits="userSpaceOnUse" color-interpolation-filters="sRGB">
<feFlood flood-opacity="0" result="BackgroundImageFix"/>
<feColorMatrix in="SourceAlpha" type="matrix" values="0 0 0 0 0 0 0 0 0 0 0 0 0 0 0 0 0 0 127 0"/>
<feOffset dy="6"/>
<feGaussianBlur stdDeviation="4"/>
<feColorMatrix type="matrix" values="0 0 0 0 0 0 0 0 0 0 0 0 0 0 0 0 0 0 0.6 0"/>
<feBlend mode="normal" in2="BackgroundImageFix" result="effect1_dropShadow"/>
<feBlend mode="normal" in="SourceGraphic" in2="effect1_dropShadow" result="shape"/>
</filter>
<clipPath id="clip0">
<rect width="116" height="80" fill="white" transform="translate(8 2)"/>
</clipPath>
</defs>
</svg>

<svg width="132" height="96" viewBox="0 0 132 96" fill="none" xmlns="http://www.w3.org/2000/svg"><g clip-path="url(#clip0)" filter="url(#filter0_d)" fill="#231F20"><path d="M104.06 33.184c-.4 0-.807 0-1.211.036-.855-9.9-9.45-17.633-19.648-17.633-2.71.004-5.39.55-7.877 1.604a24.14 24.14 0 00-9.029-11.042A24.86 24.86 0 0052.497 2c-13.525 0-24.53 10.746-24.53 23.954 0 .366 0 .739.03 1.115-5.527.75-10.594 3.433-14.267 7.554-3.674 4.12-5.708 9.402-5.73 14.876a22.194 22.194 0 003.942 12.69 22.865 22.865 0 0010.547 8.306c2.293.919 6.364 1.44 6.71.666.139-.31-.207-.632-1.116-1.042a46.595 46.595 0 01-6.785-3.706c-4.329-2.994-6.612-6.078-7.762-8.13a18.69 18.69 0 01-2.143-8.784c.014-4.924 1.938-9.658 5.38-13.241 3.444-3.584 8.148-5.749 13.158-6.055a1.723 1.723 0 001.195-.595 1.654 1.654 0 00.383-1.259 20.54 20.54 0 01-.15-2.395c0-11.372 9.499-20.627 21.138-20.627a21.535 21.535 0 0112.57 4.084 20.86 20.86 0 017.665 10.588c.074.238.202.457.373.64a1.727 1.727 0 002.083.324 16.593 16.593 0 018.122-2.049 16.59 16.59 0 018.089 2.172 16.187 16.187 0 015.925 5.821 15.79 15.79 0 012.2 7.937v.196a1.667 1.667 0 00.585 1.277 1.73 1.73 0 001.372.386c.855-.13 1.718-.195 2.583-.196 4.378-.01 8.582 1.686 11.687 4.714 3.106 3.028 4.859 7.14 4.874 11.435 0 5.273-2.979 10.696-7.29 13.378-2.036 1.3-2.073 1.547-7.27 4.075-.583.283-1.228.666-1.041 1.062.125.272.709.392 1.519.392a17.356 17.356 0 005.54-1.071c4.192-1.785 7.628-4.935 9.725-8.918a19.127 19.127 0 001.789-12.939c-.941-4.386-3.398-8.32-6.954-11.135a20.09 20.09 0 00-12.566-4.316h-.017zM32.02 77.522v2.565h-1.336v-5.872h1.336v2.282h.743l1.696-2.282h1.527l-2.263 2.848 2.432 3.024H34.63l-1.985-2.565h-.624zm7.216 2.708c-1.458 0-2.95-.951-2.95-3.067s1.492-3.081 2.95-3.081c1.46 0 2.952.961 2.952 3.08 0 2.12-1.493 3.068-2.952 3.068zm1.581-3.067c0-1.355-.746-2.02-1.58-2.02-.835 0-1.581.665-1.581 2.02 0 1.354.746 1.996 1.58 1.996.835 0 1.581-.639 1.581-1.996zm6.534.425h-2.673v2.499h-1.326v-5.872h1.326v2.345h2.673v-2.345h1.323v5.872h-1.323v-2.499zm7.804 3.886v-1.387H50.78v1.387h-1.2v-2.402h.338c.679 0 1.018-.852 1.113-2.994l.088-1.867h4.366v4.858h.892v2.402l-1.22.003zm-2.883-6.234l-.055.998c-.091 1.55-.312 2.388-.78 2.838h2.714V75.24h-1.88zm9.258 4.847v-4.072l-2.85 4.072h-1.327v-5.872h1.327v4.092l2.85-4.092h1.326v5.872h-1.327zm8.81 1.387h-1.204v-1.387H64.35v-5.872h1.32v4.847h2.448v-4.847h1.327v4.847h.892l.003 2.412zm5.166-1.387v-4.072l-2.85 4.072H71.33v-5.872h1.326v4.092l2.85-4.092h1.326v5.872h-1.326zm5.322.143c-1.458 0-2.951-.951-2.951-3.067s1.493-3.081 2.951-3.081c1.459 0 2.952.961 2.952 3.08 0 2.12-1.49 3.068-2.952 3.068zm1.581-3.067c0-1.355-.746-2.02-1.58-2.02-.835 0-1.582.665-1.582 2.02 0 1.354.747 1.996 1.581 1.996.835 0 1.581-.639 1.581-1.996zm6.515.425h-2.67v2.499h-1.326v-5.872h1.326v2.345h2.67v-2.345h1.326v5.872h-1.326v-2.499zm5.448 1.561c.678 0 1.235-.273 1.469-.819h1.303a2.664 2.664 0 01-1.025 1.407 2.752 2.752 0 01-1.69.493c-1.926 0-3.029-1.44-3.029-3.124 0-1.767 1.239-3.024 2.941-3.024 1.836 0 2.982 1.464 2.874 3.44h-4.468c.088 1.091.869 1.627 1.625 1.627zm1.493-2.575a1.458 1.458 0 00-.45-1.05 1.514 1.514 0 00-1.077-.427 1.574 1.574 0 00-1.105.417 1.514 1.514 0 00-.486 1.06h3.118zM99.635 75c.187-.295.451-.536.765-.698a2.018 2.018 0 011.02-.22c1.459 0 2.571 1.19 2.571 3.067 0 1.877-1.112 3.081-2.571 3.081a2.018 2.018 0 01-1.02-.22 1.968 1.968 0 01-.765-.698V82h-1.323v-7.785h1.323V75zm2.976 2.15c0-1.232-.557-1.997-1.483-1.997-.868 0-1.547.665-1.547 1.996s.679 2.023 1.547 2.023c.926.013 1.483-.775 1.483-2.023z"/><path d="M32.445 58.605c2.29 0 4.24 1.48 4.24 4.428s-1.95 4.415-4.24 4.415-4.244-1.467-4.244-4.415 1.95-4.428 4.244-4.428zm0 6.52c.73 0 1.289-.532 1.289-2.092s-.56-2.106-1.289-2.106c-.73 0-1.29.546-1.29 2.106 0 1.56.557 2.093 1.29 2.093zm4.944-2.98v-.26c.084-3.07 1.017-5.629 4.749-5.988l2.507-.233v2.561l-3.08.333c-1.133.14-2.036.563-2.137 2.14.488-.955 1.563-1.265 2.523-1.265 1.876 0 3.566 1.331 3.566 3.883 0 2.748-2.12 4.118-4.139 4.118-2.168.014-3.99-1.556-3.99-5.29zm5.214 1.184c0-1.387-.604-1.793-1.249-1.793-.644 0-1.143.422-1.143 1.793 0 1.234.57 1.797 1.174 1.797s1.218-.486 1.218-1.797zm3.391 1.641h.258c.53 0 1.045-.533 1.174-3.308l.146-2.808h6.903v8.391h-2.863V61.13h-1.405l-.129 1.966c-.159 2.372-1.061 4.149-3.541 4.149h-.543v-2.276zm13.741-4.386a1.207 1.207 0 00-.885.268 1.165 1.165 0 00-.417.81h-2.466c.128-1.593 1.42-3.107 3.968-3.107 2.209 0 3.783.905 3.756 3.713v1.607c-.019 1.125.029 2.25.142 3.37h-2.666v-1.091c-.573.921-1.53 1.294-2.619 1.294-1.506 0-2.751-1.015-2.751-2.512 0-1.95 1.845-2.775 5.088-2.994v-.233c-.003-.938-.532-1.125-1.15-1.125zm-1.075 3.993c0 .359.275.765.946.765.747 0 1.378-.333 1.378-1.624v-.25c-1.52.11-2.324.393-2.324 1.125v-.016zm11.08-.093a8.41 8.41 0 01-1.92.22c-1.72 0-2.765-.876-2.765-2.746v-3.104h2.866v2.619c0 .951.299 1.108 1.116 1.108.238.002.474-.03.703-.094v-3.633h2.866v8.391H69.74v-2.761zm4.567-5.63h2.866v2.965h2.25v-2.965h2.87v8.391h-2.867v-3.15h-2.25v3.15H74.31l-.003-8.39zm9.703 0h2.863v2.449h1.018c2.405 0 3.422.905 3.422 2.931 0 2.262-.902 3.011-3.25 3.011H84.01v-8.39zm3.796 6.285c.587 0 .96-.186.96-.905 0-.639-.373-.825-.947-.825h-.946v1.73h.933zm4.47-6.285h2.864v8.391h-2.863v-8.39zm4.581 0h2.65v4.658l2.653-4.658h2.649v8.39h-2.649v-4.57l-2.653 4.57h-2.65v-8.39zm1.205-2.917h1.696c.071.372.431.562 1.075.562.645 0 1.018-.19 1.076-.562h1.696c-.116 1.154-1.018 1.95-2.779 1.95-1.76 0-2.68-.796-2.764-1.95z"/></g><defs><clipPath id="clip0"><path fill="#fff" transform="translate(8 2)" d="M0 0h116v80H0z"/></clipPath><filter id="filter0_d" x="0" y="0" width="132" height="96" filterUnits="userSpaceOnUse" color-interpolation-filters="sRGB"><feFlood flood-opacity="0" result="BackgroundImageFix"/><feColorMatrix in="SourceAlpha" values="0 0 0 0 0 0 0 0 0 0 0 0 0 0 0 0 0 0 127 0"/><feOffset dy="6"/><feGaussianBlur stdDeviation="4"/><feColorMatrix values="0 0 0 0 0 0 0 0 0 0 0 0 0 0 0 0 0 0 0.6 0"/><feBlend in2="BackgroundImageFix" result="effect1_dropShadow"/><feBlend in="SourceGraphic" in2="effect1_dropShadow" result="shape"/></filter></defs></svg>
